X: 48
T:Valse
M:3/4
L:1/4
S:St. Chartier 1997, via Eurojam
R:Waltz
K:Dm
A2A|AGF|AGF|E3|B2B|BAG|dcB|A3|A2A|AGF|AGF|E3|B/2A/2 G/2B/2 A/2G/2|A/2G/2
 F/2A/2 G/2F/2|F2E|1D3:|2D2A|:
K:D L:1/16 AF AF AF|BF BF BF|AF AF AF|BF BF BF|AF BF cF|dF cF BF|dF cF B
F|G6|BG BG BG|cG cG cG|BG BG BG|cG cG cG|BG cG dG|eG dG cG|eG dG cG|1A6:
|2d6||
